src/icons/istanbul.svg

<svg viewBox="0 0 512 512" xmlns="http://www.w3.org/2000/svg">
  <path
    d="m455.53 83.986-11.783 65.043c-3.209 1.945-3.432 5.288-1.061 6.39h24.253c4.34.482 5.615-6.452.6-5.59zm-12.513 72.299v52.416l-7.432.05c-.964 5.66.85 11.824 4.871 14.493l-.166 124.36c-4.84 1.125-6.397 6.78-.681 8.206l-4.328 38.45-4.58.002v-39.26h-13.144l-.314-79.706c4.358-3.651 2.899-7.653 3.293-11.87h-4.21l-.33-36.048c1.919-1.433 3.1-5.216-.22-5.554l-8.122-44.691c-.713-.971-1.353-.573-1.757 0l-7.474 44.587c-4.072 1.284-3.427 3.075-.95 4.466l.188 37.713s-3.624.034-4.959.1c-.806 6.798 2.805 10.347 2.805 10.347l-.31 53.933-13.674.157v-7.432h-9.453l.052-22.149h2.898s.313-2.19-.685-2.221c-.552-.017-1.278-.012-2.208-.014l.06-25.293-17.313.08v-3.695h-6.098c-14.785-30.857-44.131-50.285-82.68-52.758h-.054l.034-5.635c-.477-2.268-1.488-4.406-4.035-6.674 0 0-.015-.796 0-1.985.195-.035.931-.012 1.214-.526l-.08-2.227s-.14-.893-1.206-1.195c.543-3.73-.762-3.659-.762-3.659l.067-1.435c.92-.907 1.223-2.738-.172-2.705 0 0 .048-4.088-.6-4.25-.648-.162-.9 3.43-.9 3.43-.998.593-1.393 2.478-.251 3.634l-.308 4.923c-.993 1.08-1.496 2.376-.204 3.76l.129 1.935c-2.315.884-4.256 5.013-4.365 6.771l-.048 5.683c-34.286 2.215-68.12 20.402-82.092 52.837l-6.473.048.024 3.728-17.885.055v25.325c-.754-.006-1.335-.018-1.912 0-.998.031-1.373 2.247-1.373 2.247h3.285v22.35l-8.385-.118v7.144l-23.741-.095-.492-52.688c3.397-4.315 3.097-6.793 3.065-12.013h-3.835l-.584-37.795c3.166-.972 3.37-4.75.065-5.312l-8.545-44.105c-.086-.368-.267-.732-.542-.675-.165.035-.364.221-.597.647l-7.645 44.38c-4.678 2.112-2.936 4.001-1.24 5.109l.083 37.75h-5.284c.045 3.495-1.297 7.772 3.53 11.867l.158 79.496H79.786l.274 39.38-4.613.003-3.64-38.807c6.447-1.727 3.907-6.486-.205-7.998 0 0 .24-119.26-.12-122.98-.359-3.715 4.433-4.195 4.433-12.107.94-5.473-4.698-3.855-7.106-3.968v-52.1h-25.24v52.112c-2.668-.038-4.685-.05-5.049.002-1.678.24-2.038 2.996-1.44 7.551.6 4.555 4.14 7.523 4.14 7.523l.647 121.23c.297 4.083-1.291 3.546-2.867 3.935-3.106.498-2.338 6.47 1.797 6.47.66 5.754-7.91 72.399-7.91 72.399l446.22.385-8.474-72.55c7.005-.828 4.182-7.823-1.035-7.704l-.113-124.01c2.219-1.21 6.71-7.235 4.425-15.251l-6.515.044v-52.254zm-184.67 117.54c2.29.067 4.513 1.657 5.179 4.476v16.378H252.42l.357-16.202c.925-3.266 3.28-4.72 5.57-4.653zm-39.291.022c2.45-.047 4.998 1.817 5.683 5.008v15.821l-10.588-.045.288-16.93c.866-2.623 2.712-3.817 4.617-3.853zm102.95.087c1.97.18 3.75 1.868 4.264 4.891v15.956h-9.643l-.032-16.704c1.279-2.998 3.44-4.323 5.411-4.142zm-50.463.004c2.3.098 4.506 1.654 5.115 4.49v16.32l-10.943-.046.143-16.503c.99-2.997 3.385-4.358 5.685-4.26zm-64.88.016c2.204-.116 4.511 1.387 5.26 4.133v16.593h-9.722l.286-17.341c.809-2.227 2.462-3.295 4.176-3.385zm150.05.028c1.692.123 3.362 1.534 4.355 4.8l-.08 4.609c-6.404-.08-6.113.998-9.34 3.196l-.168-7.9c.848-2.892 3.058-4.863 5.233-4.705zm-162.29.022c2.204-.116 4.511 1.387 5.26 4.133v16.595h-9.722l.286-17.343c.809-2.227 2.462-3.295 4.176-3.385zm50.326 0c2.372-.116 4.792 1.387 5.18 4.133v16.595h-9.936l.288-17.343c.81-2.227 2.623-3.295 4.468-3.385zm38.839 0c2.318-.116 4.744 1.387 5.532 4.133v16.595h-10.225l.302-17.343c.851-2.227 2.588-3.295 4.39-3.385zm49.681.031c2.207-.093 4.437 1.435 4.826 4.18v16.596l-9.34-.08.286-17.342c.81-2.227 2.512-3.28 4.228-3.353zm-161.8.012c1.9.137 3.683 1.676 4.474 4.413l.087 16.444h-3.344c-.27-2.142-.849-7.58-4.528-8.398-.24-1.062-1.236-1.68-1.88-2.114l.024-6.343c1.252-2.872 3.267-4.138 5.167-4.001zm11.011.006c2.204-.115 4.511 1.388 5.26 4.133v16.595h-9.722l.288-17.34c.809-2.227 2.46-3.297 4.174-3.387zm48.784 0c2.204-.115 4.511 1.388 5.26 4.133v16.595h-9.722l.288-17.34c.809-2.227 2.46-3.297 4.174-3.387zm113.53.04c2.134-.13 4.23 1.47 5.19 3.956l.025 10.407c-.645.435-1.72 2.048-1.735 4.735-.709.538-1.36.916-1.35 1.713h-6.668V277.93c1.194-2.589 2.878-3.736 4.538-3.837zm-47.549.032c1.981.103 3.779 1.68 4.365 4.52l-.24 16.035h-9.723l.127-16.224c1.324-3.063 3.49-4.435 5.471-4.332zm-137.41.123c1.891-.127 3.805.83 4.577 3.15v6.442h-9.117l.088-6.235c.69-2.017 2.56-3.23 4.452-3.357zm149.47.074c2.235.01 4.475 1.539 4.885 4.535v15.82l-9.742-.046v-15.733c.39-3.077 2.622-4.586 4.857-4.576zm-136.23 24.745h3.372v22.063h-3.372zm170.74 0h3.373v22.063h-3.373zm-184.15 13.778h2.378v15.205h-2.378zm198.94 0h2.38v15.205h-2.38zm-175.74 8.694h2.682v98.544h-2.682zm151.75.004h3.343v98.534h-3.343zm-75.589 17.262c3.923-.08 7.87 2.477 7.978 7.908v25.114H251.27l-.088-25.115c.02-5.113 3.92-7.829 7.843-7.908zm-19.29 11.146c2.942-.025 5.9 1.897 5.983 5.91v15.554h-11.864v-15.69c.014-3.777 2.94-5.75 5.881-5.774zm38.62 0c2.942-.025 5.9 1.897 5.983 5.91v15.554h-11.864v-15.69c.014-3.777 2.94-5.75 5.881-5.774zm-118.69.999h2.39v7.853h-2.39zm198.94 0h2.39v7.853h-2.39zm-198.91 29.184h2.388v8.144h-2.388zm198.94 0h2.39v8.144h-2.39zm-158.72 4.19c2.54-.024 5.094 1.898 5.165 5.912v15.56H194.84v-15.695c.012-3.779 2.536-5.752 5.076-5.777zm19.951.25c2.54-.024 5.092 1.898 5.163 5.912v15.56h-10.241v-15.695c.012-3.779 2.538-5.752 5.078-5.777zm19.733.127c2.756-.024 5.527 1.899 5.604 5.912v15.559H234.09v-15.694c.013-3.778 2.754-5.752 5.51-5.777zm19.699 0c2.756-.024 5.527 1.899 5.604 5.912v15.559h-11.114v-15.694c.013-3.778 2.754-5.752 5.51-5.777zm19.197 0c2.756-.024 5.529 1.899 5.606 5.912v15.559h-11.116v-15.694c.013-3.778 2.754-5.752 5.51-5.777zm20.327 0c2.756-.024 5.529 1.899 5.606 5.912v15.559h-11.116v-15.694c.013-3.778 2.754-5.752 5.51-5.777zm19.548 0c2.756-.024 5.529 1.899 5.606 5.912v15.559H312.86v-15.694c.013-3.778 2.754-5.752 5.51-5.777zM56.941 85.121l-11.783 64.213c-3.209 1.92-3.432 5.22-1.061 6.31H68.35c4.34.475 5.423-6.37.407-6.288z"
    style="fill: #fdd835; stroke-width: 1.0163"
  />
</svg>

<svg viewBox="0 0 512 512" xmlns="http://www.w3.org/2000/svg">
  <path
    d="M455.53 83.986L443.747 149.029C440.538 150.974 440.315 154.317 442.686 155.419H466.939C471.279 155.901 472.554 148.967 467.539 149.829L455.53 83.986ZM443.017 156.285V208.701L435.585 208.751C434.621 214.411 436.435 220.575 440.456 223.244L440.29 347.604C435.45 348.729 433.893 354.384 439.609 355.81L435.281 394.26L430.701 394.262V355.002H417.557L417.243 275.296C421.601 271.645 420.142 267.643 420.536 263.426H416.326L415.996 227.378C417.915 225.945 419.096 222.162 415.776 221.824L407.654 177.133C406.941 176.162 406.301 176.56 405.897 177.133L398.423 221.72C394.351 223.004 394.996 224.795 397.473 226.186L397.661 263.899C397.661 263.899 394.037 263.933 392.702 263.999C391.896 270.797 395.507 274.346 395.507 274.346L395.197 328.279L381.523 328.436V321.004H372.07L372.122 298.855H375.02C375.02 298.855 375.333 296.665 374.335 296.634C373.783 296.617 373.057 296.622 372.127 296.62L372.187 271.327L354.874 271.407V267.712H348.776C333.991 236.855 304.645 217.427 266.096 214.954H266.042L266.076 209.319C265.599 207.051 264.588 204.913 262.041 202.645C262.041 202.645 262.026 201.849 262.041 200.66C262.236 200.625 262.972 200.648 263.255 200.134L263.175 197.907C263.175 197.907 263.035 197.014 261.969 196.712C262.512 192.982 261.207 193.053 261.207 193.053L261.274 191.618C262.194 190.711 262.497 188.88 261.102 188.913C261.102 188.913 261.15 184.825 260.502 184.663C259.854 184.501 259.602 188.093 259.602 188.093C258.604 188.686 258.209 190.571 259.351 191.727L259.043 196.65C258.05 197.73 257.547 199.026 258.839 200.41L258.968 202.345C256.653 203.229 254.712 207.358 254.603 209.116L254.555 214.799C220.269 217.014 186.435 235.201 172.463 267.636L165.99 267.684L166.014 271.412L148.129 271.467V296.792C147.375 296.786 146.794 296.774 146.217 296.792C145.219 296.823 144.844 299.039 144.844 299.039H148.129V321.389L139.744 321.271V328.415L116.003 328.32L115.511 275.632C118.908 271.317 118.608 268.839 118.576 263.619H114.741L114.157 225.824C117.323 224.852 117.527 221.074 114.222 220.512L105.677 176.407C105.591 176.039 105.41 175.675 105.135 175.732C104.97 175.767 104.771 175.953 104.538 176.379L96.893 220.759C92.215 222.871 93.957 224.76 95.653 225.868L95.736 263.618H90.452C90.497 267.113 89.155 271.39 93.982 275.485L94.14 354.981H79.786L80.06 394.361L75.447 394.364L71.807 355.557C78.254 353.83 75.714 349.071 71.602 347.559C71.602 347.559 71.842 228.299 71.482 224.579C71.123 220.864 75.915 220.384 75.915 212.472C76.855 206.999 71.217 208.617 68.809 208.504V156.404H43.569V208.516C40.901 208.478 38.884 208.466 38.52 208.518C36.842 208.758 36.482 211.514 37.08 216.069C37.68 220.624 41.22 223.592 41.22 223.592L41.867 344.822C42.164 348.905 40.576 348.368 39 348.757C35.894 349.255 36.662 355.227 40.797 355.227C41.457 360.981 32.887 427.626 32.887 427.626L479.107 428.011L470.633 355.461C477.638 354.633 474.815 347.638 469.598 347.757L469.485 223.747C471.704 222.537 476.195 216.512 473.91 208.496L467.395 208.54V156.286L443.017 156.285ZM258.347 273.825C260.637 273.892 262.86 275.482 263.526 278.301V294.679H252.42L252.777 278.477C253.702 275.211 256.057 273.757 258.347 273.824V273.825ZM219.056 273.847C221.506 273.8 224.054 275.664 224.739 278.855V294.676L214.151 294.631L214.439 277.701C215.305 275.078 217.151 273.884 219.056 273.848V273.847ZM322.006 273.934C323.976 274.114 325.756 275.802 326.27 278.825V294.781H316.627L316.595 278.077C317.874 275.079 320.035 273.754 322.006 273.935V273.934ZM271.543 273.938C273.843 274.036 276.049 275.592 276.658 278.428V294.748L265.715 294.702L265.858 278.199C266.848 275.202 269.243 273.841 271.543 273.939V273.938ZM206.663 273.954C208.867 273.838 211.174 275.341 211.923 278.087V294.68H202.201L202.487 277.339C203.296 275.112 204.949 274.044 206.663 273.954ZM356.713 273.982C358.405 274.105 360.075 275.516 361.068 278.782L360.988 283.391C354.584 283.311 354.875 284.389 351.648 286.587L351.48 278.687C352.328 275.795 354.538 273.824 356.713 273.982ZM194.423 274.004C196.627 273.888 198.934 275.391 199.683 278.137V294.732H189.961L190.247 277.389C191.056 275.162 192.709 274.094 194.423 274.004ZM244.749 274.004C247.121 273.888 249.541 275.391 249.929 278.137V294.732H239.993L240.281 277.389C241.091 275.162 242.904 274.094 244.749 274.004ZM283.588 274.004C285.906 273.888 288.332 275.391 289.12 278.137V294.732H278.895L279.197 277.389C280.048 275.162 281.785 274.094 283.587 274.004H283.588ZM333.269 274.035C335.476 273.942 337.706 275.47 338.095 278.215V294.811L328.755 294.731L329.041 277.389C329.851 275.162 331.553 274.109 333.269 274.036V274.035ZM171.469 274.047C173.369 274.184 175.152 275.723 175.943 278.46L176.03 294.904H172.686C172.416 292.762 171.837 287.324 168.158 286.506C167.918 285.444 166.922 284.826 166.278 284.392L166.302 278.049C167.554 275.177 169.569 273.911 171.469 274.048V274.047ZM182.48 274.053C184.684 273.938 186.991 275.441 187.74 278.186V294.781H178.018L178.306 277.441C179.115 275.214 180.766 274.143 182.48 274.053ZM231.264 274.053C233.468 273.938 235.775 275.441 236.524 278.186V294.781H226.802L227.09 277.441C227.899 275.214 229.55 274.143 231.264 274.053ZM344.794 274.093C346.928 273.963 349.024 275.563 349.984 278.049L350.009 288.456C349.364 288.891 348.289 290.504 348.274 293.191C347.565 293.729 346.914 294.107 346.924 294.904H340.256V277.93C341.45 275.341 343.134 274.194 344.794 274.093ZM297.245 274.125C299.226 274.228 301.024 275.805 301.61 278.645L301.37 294.68H291.647L291.774 278.456C293.098 275.393 295.264 274.021 297.245 274.124V274.125ZM159.835 274.248C161.726 274.121 163.64 275.078 164.412 277.398V283.84H155.295L155.383 277.605C156.073 275.588 157.943 274.375 159.835 274.248ZM309.305 274.322C311.54 274.332 313.78 275.861 314.19 278.857V294.677L304.448 294.631V278.898C304.838 275.821 307.07 274.312 309.305 274.322ZM173.075 299.067H176.447V321.13H173.075V299.067ZM343.815 299.067H347.188V321.13H343.815V299.067ZM159.665 312.845H162.043V328.05H159.665V312.845ZM358.605 312.845H360.985V328.05H358.605V312.845ZM182.865 321.539H185.547V420.083H182.865V321.539ZM334.615 321.543H337.958V420.077H334.615V321.543ZM259.026 338.805C262.949 338.725 266.896 341.282 267.004 346.713V371.827H251.27L251.182 346.712C251.202 341.599 255.102 338.883 259.025 338.804L259.026 338.805ZM239.736 349.951C242.678 349.926 245.636 351.848 245.719 355.861V371.415H233.855V355.725C233.869 351.948 236.795 349.975 239.736 349.951ZM278.356 349.951C281.298 349.926 284.256 351.848 284.339 355.861V371.415H272.475V355.725C272.489 351.948 275.415 349.975 278.356 349.951ZM159.666 350.95H162.056V358.803H159.666V350.95ZM358.606 350.95H360.996V358.803H358.606V350.95ZM159.696 380.134H162.084V388.278H159.696V380.134ZM358.636 380.134H361.026V388.278H358.636V380.134ZM199.916 384.324C202.456 384.3 205.01 386.222 205.081 390.236V405.796H194.84V390.101C194.852 386.322 197.376 384.349 199.916 384.324ZM219.867 384.574C222.407 384.55 224.959 386.472 225.03 390.486V406.046H214.789V390.351C214.801 386.572 217.327 384.599 219.867 384.574ZM239.6 384.701C242.356 384.677 245.127 386.6 245.204 390.613V406.172H234.09V390.478C234.103 386.7 236.844 384.726 239.6 384.701ZM259.299 384.701C262.055 384.677 264.826 386.6 264.903 390.613V406.172H253.789V390.478C253.802 386.7 256.543 384.726 259.299 384.701ZM278.496 384.701C281.252 384.677 284.025 386.6 284.102 390.613V406.172H272.986V390.478C272.999 386.7 275.74 384.726 278.496 384.701ZM298.823 384.701C301.579 384.677 304.352 386.6 304.429 390.613V406.172H293.313V390.478C293.326 386.7 296.067 384.726 298.823 384.701ZM318.371 384.701C321.127 384.677 323.9 386.6 323.977 390.613V406.172H312.86V390.478C312.873 386.7 315.614 384.726 318.37 384.701H318.371ZM56.941 85.121L45.158 149.334C41.949 151.254 41.726 154.554 44.097 155.644H68.35C72.69 156.119 73.773 149.274 68.757 149.356L56.941 85.121Z"
    fill="#FDD835"
  />
</svg>
